images/icons/check-circle.svg

<svg fill="none" height="25" viewBox="0 0 25 25" width="25" xmlns="http://www.w3.org/2000/svg" xmlns:xlink="http://www.w3.org/1999/xlink"><mask id="a" height="25" maskUnits="userSpaceOnUse" width="25" x="0" y="0"><path d="m.358398.290039h24v24h-24z" fill="#d9d9d9"/></mask><g mask="url(#a)"><path d="m10.9584 16.89 7.05-7.04996-1.4-1.4-5.65 5.64996-2.85-2.85-1.4 1.4zm1.4 5.4c-1.3833 0-2.68333-.2625-3.9-.7875s-2.275-1.2375-3.175-2.1375-1.6125-1.9583-2.1375-3.175c-.525-1.2166-.7875-2.5166-.7875-3.9 0-1.3833.2625-2.68329.7875-3.89996s1.2375-2.275 2.1375-3.175 1.95833-1.6125 3.175-2.1375 2.5167-.7875 3.9-.7875 2.6833.2625 3.9.7875 2.275 1.2375 3.175 2.1375 1.6125 1.95833 2.1375 3.175.7875 2.51666.7875 3.89996c0 1.3834-.2625 2.6834-.7875 3.9-.525 1.2167-1.2375 2.275-2.1375 3.175s-1.9583 1.6125-3.175 2.1375-2.5167.7875-3.9.7875zm0-2c2.2333 0 4.125-.775 5.675-2.325s2.325-3.4416 2.325-5.675c0-2.2333-.775-4.12496-2.325-5.67496s-3.4417-2.325-5.675-2.325-4.125.775-5.675 2.325-2.325 3.44166-2.325 5.67496c0 2.2334.775 4.125 2.325 5.675s3.4417 2.325 5.675 2.325z" fill="#218c3e"/></g></svg>

<svg width="25" height="25" viewBox="0 0 25 25" fill="none" xmlns="http://www.w3.org/2000/svg">
<mask id="mask0_440_96" style="mask-type:alpha" maskUnits="userSpaceOnUse" x="0" y="0" width="25" height="25">
<rect x="0.358398" y="0.290039" width="24" height="24" fill="#D9D9D9"/>
</mask>
<g mask="url(#mask0_440_96)">
<path d="M10.9584 16.89L18.0084 9.84004L16.6084 8.44004L10.9584 14.09L8.1084 11.24L6.7084 12.64L10.9584 16.89ZM12.3584 22.29C10.9751 22.29 9.67507 22.0275 8.4584 21.5025C7.24173 20.9775 6.1834 20.265 5.2834 19.365C4.3834 18.465 3.6709 17.4067 3.1459 16.19C2.6209 14.9734 2.3584 13.6734 2.3584 12.29C2.3584 10.9067 2.6209 9.60671 3.1459 8.39004C3.6709 7.17337 4.3834 6.11504 5.2834 5.21504C6.1834 4.31504 7.24173 3.60254 8.4584 3.07754C9.67507 2.55254 10.9751 2.29004 12.3584 2.29004C13.7417 2.29004 15.0417 2.55254 16.2584 3.07754C17.4751 3.60254 18.5334 4.31504 19.4334 5.21504C20.3334 6.11504 21.0459 7.17337 21.5709 8.39004C22.0959 9.60671 22.3584 10.9067 22.3584 12.29C22.3584 13.6734 22.0959 14.9734 21.5709 16.19C21.0459 17.4067 20.3334 18.465 19.4334 19.365C18.5334 20.265 17.4751 20.9775 16.2584 21.5025C15.0417 22.0275 13.7417 22.29 12.3584 22.29ZM12.3584 20.29C14.5917 20.29 16.4834 19.515 18.0334 17.965C19.5834 16.415 20.3584 14.5234 20.3584 12.29C20.3584 10.0567 19.5834 8.16504 18.0334 6.61504C16.4834 5.06504 14.5917 4.29004 12.3584 4.29004C10.1251 4.29004 8.2334 5.06504 6.6834 6.61504C5.1334 8.16504 4.3584 10.0567 4.3584 12.29C4.3584 14.5234 5.1334 16.415 6.6834 17.965C8.2334 19.515 10.1251 20.29 12.3584 20.29Z" fill="#218C3E"/>
</g>
</svg>
